!!!COM:	Bach, Johann Sebastian
!!!CDT:	1685/02/21/-1750/07/28/
!!!OTL@@DE:	Helft mir Gotts G&uuml;te preisen
!!!SCT:	BWV 183/5
!!!PC#:	123
!!!AGN:	chorale
**kern	**kern	**kern	**kern
*ICvox	*ICvox	*ICvox	*ICvox
*Ibass	*Itenor	*Ialto	*Isoprn
*I"Bass	*I"Tenor	*I"Alto	*I"Soprano
*>[A,A,B]	*>[A,A,B]	*>[A,A,B]	*>[A,A,B]
*>norep[A,B]	*>norep[A,B]	*>norep[A,B]	*>norep[A,B]
*>A	*>A	*>A	*>A
*clefF4	*clefGv2	*clefG2	*clefG2
*k[]	*k[]	*k[]	*k[]
*a:	*a:	*a:	*a:
*M4/4	*M4/4	*M4/4	*M4/4
*met(c)	*met(c)	*met(c)	*met(c)
*MM100	*MM100	*MM100	*MM100
4AA	8cL	8eL	4a
.	8BJ	8dJ	.
=1	=1	=1	=1
4A	8cL	8eL	4a
.	8dJ	8fJ	.
4G#	8cL	8eL	4b
.	8BJ	8dJ	.
4A	8AL	8cL	4cc
.	8cJ	8eJ	.
4F#	8BL	8aL	4dd
.	8AJ	8f#J	.
=2	=2	=2	=2
8GnXL	8BL	8dL	8bL
[8AJ	8eJ	8gJ	[8ccJ
8AL]	8cL	8eL	8ccL]
16GL	8fnXJ	8aJ	16bL
16AJJ	.	.	16ccJJ
4B;	8eL	4g#;	4dd;
.	8d;J	.	.
4G#	4B	8bL	4ee
.	.	8g#J	.
=3	=3	=3	=3
4A	8AL	4.e	8ddL
.	8BJ	.	8ccJ
4F	8cL	.	8bL
.	8dJ	8a	8aJ
8EL	8eL	8aL	4cc
8DJ	8fJ	8bJ	.
4E	8BL	4g#	8bL
.	8dJ	.	8aJ
=4	=4	=4	=4
2.AA;	2.c;	2.e;	2.a;
=:|!	=:|!	=:|!	=:|!
*>B	*>B	*>B	*>B
4AA	4c	8aL	4ee
.	.	8gnXJ	.
=5	=5	=5	=5
4BB	8cL	8f#L	4dd
.	8BJ	8g#J	.
8CL	8eL	4a	4cc
8DJ	8fnXJ	.	.
4E	8BL	8aL	4b
.	8eJ	8g#J	.
4F	8eL	8aL	4a
.	8AJ	8ddJ	.
=6	=6	=6	=6
2.E;	2.e;	2.g#;	2.b;
4E	4e	4g#	4b
=7	=7	=7	=7
8AL	4e	4a	4cc
8BJ	.	.	.
8cL	4d	4gnX	4dd
8BJ	.	.	.
8cL	8cL	4g	4ee
8BJ	8dJ	.	.
8AL	4e	8ccL	4ee
8GJ	.	8bJ	.
=8	=8	=8	=8
8F#L	4A	8aL	8ddL
8EJ	.	8gJ	8ccJ
4D	4d	4f#	8bL
.	.	.	8ccJ
4G;	4d;	4g;	4b;
4G#	4e	4b	4b
=9	=9	=9	=9
8AL	4e	4a	4cc
8GnXJ	.	.	.
8FnXL	4B	4g	4dd
8GJ	.	.	.
8FL	4c	4g	4ee
8EJ	.	.	.
8DL	4B	4g	4ee
8CJ	.	.	.
=10	=10	=10	=10
8DL	8AL	8f#L	8ddL
8EJ	8eJ	8g#J	8ccJ
8FnXL	8dL	4a	8bL
8DJ	8AJ	.	8ccJ
4E;	4e;	4g#;	4b;
4C	4A	8ccL	4ee
.	.	8bJ	.
=11	=11	=11	=11
8FL	8dL	4a	8ddL
8EJ	8eJ	.	8ccJ
8DL	8fnXL	8g#L	8bL
8FJ	8dJ	8aJ	8aJ
8EL	4e	8aL	4cc
8DJ	.	8f#J	.
4E	8dL	4g#	8bL
.	8c#J	.	8aJ
=12	=12	=12	=12
2.AA;	2.c#;	2.e;	2.a;
==	==	==	==
*-	*-	*-	*-
!!!hum2abc: -Q ''
!!!title: @{PC#}. @{OTL@@DE}
!!!YOR1: 371 vierstimmige Choralges&auml;nge von Johann Sebastian Bach, 
!!!YOR2: 4th ed. by Alfred D&ouml;rffel (Leipzig: Breitkopf und H&auml;rtel, 
!!!YOR2: c.1875). 178 pp. Plate "V.A.10".  reprint: J.S. Bach, 371 Four-Part 
!!!YOR4: Chorales (New York: Associated Music Publishers, Inc., c.1940).
!!!SMS: B&H, 4th ed, Alfred D&ouml;rffel, c.1875, plate V.A.10
!!!EED:  Craig Stuart Sapp
!!!EEV:  2009/05/22
